src/assets/icons/blog-icon.svg

<svg enable-background="new 0 0 24 24" viewBox="0 0 24 24" xmlns="http://www.w3.org/2000/svg"><path d="m4.1 5.9h14.1v14.1h-14.1z" fill="none"/><path d="m14.9 8.2h-7.5c-.5 0-.9.4-.9.9v8.5l1.9-1.9h6.6c.5 0 .9-.4.9-.9v-5.6c-.1-.6-.5-1-1-1zm0 6.6h-6.6l-.9.9v-6.5h7.5z" fill="#939393"/><path d="m12.2 10.9v1.1h1.1l3.4-3.4-1.1-1.1zm5.4-3.1c.1-.1.1-.3 0-.4l-.7-.7c-.1-.1-.3-.1-.4 0l-.6.6 1.1 1.1c.1-.1.6-.6.6-.6z" fill="#939393"/><path d="m11.3 5.6h7.3v7.3h-7.3z" fill="none"/></svg>

<?xml version="1.0" encoding="utf-8"?>
<!-- Generator: Adobe Illustrator 21.1.0, SVG Export Plug-In . SVG Version: 6.00 Build 0)  -->
<svg version="1.1" id="Layer_1" xmlns="http://www.w3.org/2000/svg" xmlns:xlink="http://www.w3.org/1999/xlink" x="0px" y="0px"
	 viewBox="0 0 24 24" style="enable-background:new 0 0 24 24;" xml:space="preserve">
<style type="text/css">
	.st0{fill:none;}
	.st1{fill:#939393;}
</style>
<path class="st0" d="M4.1,5.9h14.1V20H4.1V5.9z"/>
<path class="st1" d="M14.9,8.2H7.4c-0.5,0-0.9,0.4-0.9,0.9v8.5l1.9-1.9h6.6c0.5,0,0.9-0.4,0.9-0.9V9.2C15.8,8.6,15.4,8.2,14.9,8.2z
	 M14.9,14.8H8.3l-0.9,0.9V9.2h7.5V14.8z"/>
<g>
	<path class="st1" d="M12.2,10.9V12h1.1l3.4-3.4l-1.1-1.1L12.2,10.9z M17.6,7.8c0.1-0.1,0.1-0.3,0-0.4l-0.7-0.7
		c-0.1-0.1-0.3-0.1-0.4,0l-0.6,0.6l1.1,1.1C17.1,8.3,17.6,7.8,17.6,7.8z"/>
	<path class="st0" d="M11.3,5.6h7.3v7.3h-7.3V5.6z"/>
</g>
</svg>
